X:1
T:Ermentre dich, mein schwacher Geist
T:Ermuntre dich, mein schwacher Geist
T:Schmellis Gesangbuch, No. 16
T:Johann Sebastian Bach
T:Willkommen süßer Bräutigam, Du König aller Ehren! Willkommen Jesu, Gottes Lamm! Ich will dein Lob vermehren; Ich will dir all mein Lebenlang Von Herzen sagen Preis und Dank, Daß du, da wir verloren, Für uns bist Mensch geboren.
T:O großer Gott, wie konnt es sein, Dein Himmelreich zu lassen, Zu springen in die Welt hinein, Da nichts denn Neid und Hassen? Wie konntest du die große Macht, Dein Königreich, die Freudenpracht, Ja solch ein herrlichs Leben Für deine Feind hingeben?
T:Du Fürst und Herrscher dieser Welt, Du Friedenswiederbringer, Du kluger Rat und tapfrer Held, Du starker Höllenzwinger, Wie war es möglich, daß du dich Erniedrigtest so jämmerlich, Als wärest du im Orden Der Bettler Mensch geworden?
T:by Mutopia - Scritto con MuseScore, un software libero e gratuito: http://musescore.org/it
C:Johann Sebastian Bach
Z:by Mutopia - Scritto con MuseScore, un software libero e gratuito: http://musescore.org/it
%%score 1 2
L:1/8
M:3/4
K:F
V:1 alto1 nm="Viola"
V:2 bass nm="Violoncello"
V:1
 A2 F2 G2 | (A2 =B2) c2 | c4 =B2 | !fermata!c6 | A2 B2 A2 | G4 F2 | (A4 G2) | F6 :| G2 G2 A2 | %9
w: Er\- mun\- tre|dich, * mein|schwa\- cher|Geist,|und tra\- ge|groß Ver\-|lan- *|gen,|Dies ist die|
w: ein klei\- nes|Kind, _ das|Va\- ter|heißt,|mit Freu\- den|zu em\-|fan- *|gen.||
 (B2 A2) B2 | (A2 G2) A2 | G6 | A2 A2 A2 | (B2 c2) d2 | (d2 e2) ^c2 | !fermata!d4 e2 | f4 A2 | %17
w: Nacht, _ dar\-|rin _ es|kam|und mensch\- lich|We- * sen|an _ sich|nahm, da\-|durch die|
w: ||||||||
 B4 A2 | G4 !fermata!G2 | c2 d2 c2 | B6 | AG G4 | F6 |] %23
w: Welt mit|Treu\- en|als sei\- ne|Braut|zu * frei\-|en|
w: ||||||
V:2
 F,,2 A,,2 C,2 | F,2 E,D,E,F, | G,2 F,2 G,2 | !fermata!C,6 | F,2 E,2 F,2 | B,,2 A,,G,,A,,B,, | %6
w: ||||||
 C,2 B,,2 C,2 | F,,6 :| C,2 B,,2 A,,2 | G,,2 D,2 G,2 | D,4 D,,2 | G,,6 | D,2 ^F,2 D,2 | %13
w: ||* * \|||||
 F,2 E,D,E,F, | G,2 F,2 G,2 | !fermata!D,4 C,2 | A,2 B,A,G,F, | E,2 C,2 F,2 | C,4 !fermata!C,,2 | %19
w: ||||||
 A,,2 B,,A,,B,,C, | D,2 D,,C,,D,,E,, | F,,2 C,2 C,,2 | F,,6 |] %23
w: ||||

